X:0390
M:6/8
L:1/8
Q:3/8=120
K:D Dorian
  A2a  g2e| f2d ege |c3 c>dc|A2a  g2e| f2d   gec     |[1 d3 AFD:|\
                                                      [2 d3 d2 ||
e|fed Tc2A| c2f ege |c3 cde |fed  cBA| d2d (^f/g/a).f|   d3 d2 ||
e|f>ga gaf|Te2d ege |c3 cde |f>ga gaf|Te2d   gec     |   d3 d2 :|

